X:1
T:072 - Amigo Sem Igual
T:Letra: Henry Maxwell Wright (1849-1931)
T:Música: Herbert H. Booth (1862 - ?)
M:6/8
L:1/8
K:G
V:1
D | "G"D2GB2c | (B3B2)d | d2B G2B |"D"A3- A2A | A2B "D7"c2F | F2G A2B | c2e d2c | "G"(B3B2)D | D2GB2c | (B3B2)d | d2B G2B | "D"(A3A2)A | A2B c2A | "A7"A2G "D7"F2E | "G"D2D "D7"E2F | "G"(G3G2) |]
w: 1.~A-mi-go sem i-gual!_ A-mi-go sem i-gual!_ O meu Je-sus em meu lu-gar Mor-reu pra me sal-var!_ A-mi-go sem i-gual!_ A-mi-go sem i-gual!_ Seu gran-dea-mor não mu-da-rá, E nun-ca fa-lha-rá!_
w: 2.~A-mi-go sem i-gual!_ A-mi-go sem i-gual!_ Per-to E-lees-tá e quer sal-var Quem nE-le con-fiar._ A-mi-go sem i-gual!_ A-mi-go sem i-gual!_ Con-vi-da com i-men-soa-mor A to-do pe-ca-dor!_
W: 
W:1. Amigo sem igual! Amigo sem igual!
W: O meu Jesus em meu lugar
W: Morreu pra me salvar!
W: Amigo sem igual! Amigo sem igual!
W: Seu grande amor não mudará,
W: E nunca falhará!
W: 
W: 
W:2. Amigo sem igual! Amigo sem igual!
W: Perto Ele está e quer salvar
W: Quem nEle confiar.
W: Amigo sem igual! Amigo sem igual!
W: Convida com imenso amor
W: A todo pecador!
W:         
W: 				         
W:           





